wrench-check.svg

<svg fill="currentColor" viewBox="0 0 24 24"><path d="M9 2c1.8.6 3 2.3 3 4.2 0 2-1.2 3.7-3 4.3v11c0 .3-.2.5-.5.5h-2c-.3 0-.5-.2-.5-.6v-11c-1.8-.6-3-2.3-3-4.2S4.2 2.6 6 2v3.7h3zm11.6 11 1.4 1.41L15.47 21 12 17.5l1.4-1.41 2.07 2.08z"/></svg>

<svg  viewBox="0 0 24 24" fill="currentColor"><path  d="M9 2C10.8 2.6 12 4.3 12 6.2C12 8.2 10.8 9.9 9 10.5V21.5C9 21.8 8.8 22 8.5 22H6.5C6.2 22 6 21.8 6 21.4V10.4C4.2 9.8 3 8.1 3 6.2S4.2 2.6 6 2V5.7H9V2M20.6 13L22 14.41L15.47 21L12 17.5L13.4 16.09L15.47 18.17L20.6 13"/></svg>
